X:1
T:Only in Thee
T:Charles Hutchinson Gabriel
T:Only in Thee
T:Public Domain
T:Public Domain
C:Charles Hutchinson Gabriel
Z:Public Domain
%%score ( 1 2 ) ( 3 4 )
L:1/8
M:9/8
K:Bb
V:1 treble 
V:2 treble 
V:3 bass 
V:4 bass 
V:1
 [B,D][CE][^C=E] | [DF]3 [DF]3 [EG]2 [DF] | [DB]3- [DB]2 z [Fd][Fc][FB] | %3
w: 1.~On- ly in|Thee, O Sav- ior|mine, * Dwell- eth my|
w: 2.~On- ly in|Thee a rad- iance|bright, * Shines like a|
w: 3.~On- ly in|Thee, when days are|drear, * When nei- ther|
w: 4.~On- ly in|Thee, dear Sav- ior,|slain, * Los- ing Thy|
 [GB]3- [GB]2 [Gc] [GB]2 [EG] | [DF]3- [DF]2 z [DF][^C=E][DF] | [EA]3 [EA]3 [EA]2 [DB] | %6
w: soul * in peace di-|vine, * Peace that the|world, though all com-|
w: bea- * con in the|night, * Guid- ing my|pil- grim bark a-|
w: sun * nor stars ap-|pear, * Still I can|trust and feel no|
w: life * my own to|gain, * Trust- ing, I’m|cleansed from ev- ’ry|
 [Fc]3- [Fc]2 z [Ac][GB][FA] | [=EG]3- [EG]3 [EA]3 | (F2 D [EF]2) z [Fd][=E^c][Fd] | %9
w: bine, * Nev- er can|take * from|me. * * Plea- sures of|
w: right, * O- ver life’s|track- * less|sea. * * On- ly in|
w: fear, * Sing when I|can- * not|see. * * On- ly in|
w: stain; * Thou art my|on- * ly|plea. * * On- ly in|
 [DB]3 [DF]3 [B,D][DF][DB] | [EA]3- [EA]2 z [Fe][Fd][Fe] | [Fc]3 [FA]3 F[FB][Fc] | %12
w: so seem- ing- ly sweet,|Fail * at the last|my long- ings to meet;|
w: when trou- bles mo- lest,|When * with temp- ta-|tion I am op- pressed,|
w: what- ev- er be- tide,|All * of my need|is free- ly sup- plied;|
w: my heart will de- light,|Till * in that land|where com- eth no night|
 [Fd]3- [Fd]2 z [Fd][=E^c][Fd] | [DB]3 [DF]3 [B,D][DF][FB] | [EG]3- [EG]2 z [^CB][CA][CG] | %15
w: ly * in Thee my|bliss is com- plete, On-|ly, * dear Lord, in|
w: is * a sweet pa-|vil- ion of rest, On-|ly, * dear Lord, in|
w: is * no help nor|help- er be- side, On-|ly, * dear Lord, in|
w: will * be lost in|heav- en- ly sight, On-|ly, * dear Lord, in|
 ([DF-]3 [CF]3) [Ec]3 | [DB]3- [DB]2 z |] %17
w: Thee! * *||
w: Thee! * *||
w: Thee! * *||
w: Thee! * *||
V:2
 x3 | x9 | x9 | x9 | x9 | x9 | x9 | x9 | F3- x6 | x9 | x9 | x6 F x2 | x9 | x9 | x9 | x9 | x6 |] %17
w: ||||||||earth,|||On-||||||
w: ||||||||Thee,|||There||||||
w: ||||||||Thee,|||There||||||
w: ||||||||Thee|||Faith||||||
V:3
 [B,,F,][B,,F,][B,,G,] | [B,,B,]3 [B,,B,]3 [B,,B,]2 [B,,B,] | %2
 [B,,F,]3- [B,,F,]2 z [B,,B,][C,A,][D,B,] | [E,E]3- [E,E]2 [E,E] [E,E]2 [E,B,] | %4
 [B,,B,]3- [B,,B,]2 z [B,,B,][B,,B,][B,,B,] | [F,C]3 [F,C]3 [F,C]2 [F,B,] | %6
 [F,A,]3- [F,A,]2 z [F,C][F,C][F,C] | [C,B,]3- [C,B,]3 [C,C]3 | %8
 (A,2 B, [F,C]2) z [B,,B,][B,,B,][B,,B,] | [B,,F,]3 [B,,B,]3 [B,,F,][B,,B,][B,,B,] | %10
 [F,C]3- [F,C]2 z [F,C][F,=B,][F,C] | [F,A,]3 [F,C]3 [E,C][D,B,][F,A,] | %12
 B,3- B,2 z [B,,B,][B,,B,][B,,B,] | [B,,F,]3 [B,,B,]3 [B,,F,][B,,B,][D,B,] | %14
 [E,B,]3- [E,B,]2 z [=E,B,][E,B,][E,B,] | ([F,-B,]3 [F,A,]3) F,3 | [B,,F,]3- [B,,F,]2 z |] %17
V:4
 x3 | x9 | x9 | x9 | x9 | x9 | x9 | x9 | F,3- x6 | x9 | x9 | x9 | B,3- B,2 x4 | x9 | x9 | x6 F,3 | %16
 x6 |] %17

